public/skills/expressjs.svg

<svg width="1334" height="774" viewBox="0 0 1334 774" fill="none" xmlns="http://www.w3.org/2000/svg">
<path d="M1333.33 753.493C1284.83 765.823 1254.83 754.033 1227.92 713.623L1036.5 448.793L1008.83 412.123L785.29 714.503C759.75 750.883 732.96 766.703 685.29 753.833L971.54 369.583L705.04 22.4932C750.87 13.5832 782.54 18.1132 810.66 59.1632L1009.2 327.293L1209.2 60.6232C1234.82 24.2432 1262.37 10.4232 1308.37 23.8232L1205.04 160.823L1065.04 343.113C1048.37 363.943 1050.66 378.203 1066 398.313L1333.33 753.493ZM0.34 363.163L23.75 247.993C87.5 20.0732 348.75 -74.6368 528.92 66.1932C634.21 149.023 660.38 266.193 655.17 397.443H61.67C52.76 633.693 222.8 776.273 439.58 703.533C515.62 677.993 560.41 618.443 582.83 543.953C594.21 506.623 613.03 500.783 648.12 511.453C630.21 604.623 589.79 682.453 504.37 731.163C376.75 804.073 194.57 780.493 98.75 679.163C41.66 620.363 18.08 545.873 7.5 466.203C5.83 453.033 2.5 440.493 0 427.873C0.22 406.313 0.34 384.763 0.34 363.203V363.163V363.163ZM62.75 347.333H599.08C595.58 176.503 489.21 55.1632 343.83 54.1332C184.25 52.8832 69.66 171.333 62.74 347.333H62.75V347.333Z" fill="white"/>
</svg>

<svg xmlns="http://www.w3.org/2000/svg" viewBox="0 0 1333.33 773.55" shape-rendering="geometricPrecision" text-rendering="geometricPrecision" image-rendering="optimizeQuality" fill-rule="evenodd" clip-rule="evenodd"><path d="M1333.33 753.49c-48.5 12.33-78.5.54-105.41-39.87L1036.5 448.79l-27.67-36.67L785.29 714.5c-25.54 36.38-52.33 52.2-100 39.33l286.25-384.25-266.5-347.09c45.83-8.91 77.5-4.38 105.62 36.67l198.54 268.13 200-266.67c25.62-36.38 53.17-50.2 99.17-36.8l-103.33 137-140 182.29c-16.67 20.83-14.38 35.09.96 55.2l267.33 355.18zM.34 363.16l23.41-115.17c63.75-227.92 325-322.63 505.17-181.8 105.29 82.83 131.46 200 126.25 331.25H61.67C52.76 633.69 222.8 776.27 439.58 703.53c76.04-25.54 120.83-85.09 143.25-159.58 11.38-37.33 30.2-43.17 65.29-32.5-17.91 93.17-58.33 171-143.75 219.71-127.62 72.91-309.8 49.33-405.62-52C41.66 620.36 18.08 545.87 7.5 466.2c-1.67-13.17-5-25.71-7.5-38.33.22-21.56.34-43.11.34-64.67v-.04zm62.41-15.83h536.33c-3.5-170.83-109.87-292.17-255.25-293.2-159.58-1.25-274.17 117.2-281.09 293.2h.01z" fill-rule="nonzero"/></svg>
